assets/img/braze_icons/line-chart-up-05.svg

<svg fill="none" height="24" viewBox="0 0 24 24" width="24" xmlns="http://www.w3.org/2000/svg"><path clip-rule="evenodd" d="m12 23c-6.07513 0-11-4.9249-11-11 0-6.07513 4.92487-11 11-11 6.0751 0 11 4.92487 11 11 0 6.0751-4.9249 11-11 11zm-5.29289-8.2929c-.39053.3905-1.02369.3905-1.41422 0-.39052-.3905-.39052-1.0237 0-1.4142l3.45068-3.45069c.0842-.08426.18475-.18489.2806-.26626.11107-.09429.27967-.21984.5123-.29543.30127-.09789.62583-.09789.92703 0 .2327.07559.4013.20114.5123.29543.0959.08137.1964.182.2806.26626l2.7436 2.74359 3.2929-3.29291c.3905-.39052 1.0237-.39052 1.4142 0 .3905.39053.3905 1.02371 0 1.41421l-3.4506 3.4507c-.0842.0842-.1848.1849-.2807.2663-.111.0942-.2796.2198-.5123.2954-.3012.0979-.6258.0979-.927 0-.2327-.0756-.4013-.2012-.5123-.2954-.0959-.0814-.1964-.1821-.2806-.2663l-2.7436-2.7436z" fill="#801ed7" fill-rule="evenodd"/></svg>

<svg width="24" height="24" viewBox="0 0 24 24" fill="none" xmlns="http://www.w3.org/2000/svg">
<path fill-rule="evenodd" clip-rule="evenodd" d="M12 23C5.92487 23 1 18.0751 1 12C1 5.92487 5.92487 1 12 1C18.0751 1 23 5.92487 23 12C23 18.0751 18.0751 23 12 23ZM6.70711 14.7071C6.31658 15.0976 5.68342 15.0976 5.29289 14.7071C4.90237 14.3166 4.90237 13.6834 5.29289 13.2929L8.74357 9.84221C8.82777 9.75795 8.92832 9.65732 9.02417 9.57595C9.13524 9.48166 9.30384 9.35611 9.53647 9.28052C9.83774 9.18263 10.1623 9.18263 10.4635 9.28052C10.6962 9.35611 10.8648 9.48166 10.9758 9.57595C11.0717 9.65732 11.1722 9.75795 11.2564 9.84221L14 12.5858L17.2929 9.29289C17.6834 8.90237 18.3166 8.90237 18.7071 9.29289C19.0976 9.68342 19.0976 10.3166 18.7071 10.7071L15.2565 14.1578C15.1723 14.242 15.0717 14.3427 14.9758 14.4241C14.8648 14.5183 14.6962 14.6439 14.4635 14.7195C14.1623 14.8174 13.8377 14.8174 13.5365 14.7195C13.3038 14.6439 13.1352 14.5183 13.0242 14.4241C12.9283 14.3427 12.8278 14.242 12.7436 14.1578L10 11.4142L6.70711 14.7071Z" fill="#801ED7"/>
</svg>
